!!!OTL: Lachen und Weinen (30), S. 114
!!!id: T0155
**kern
*clefG2
*k[b-]
*F:
{8c
=1
8f
8f
8f
8f
8a
8a
=2
8cc
8cc
8cc
8a
8g
8f
=3
4.g
4cc
8b-
=4
4a}
4.r
=5
{8c
=6
8b-
8a
8g
8g
8a
8b-
=7
8dd
8cc
8b-
8a
8g
8f
=8
4.g
4cc
8b-
=9
4a}
4.r
=10
{16c
16c
=11
8b-
8a
8g
8g
8a
8b-
=12
8dd
8cc
8cc
8a
8a}
=13
{8cc
=14
4cc
8a
8a
8g
8a
=15
8dd
8cc
8b-
4a}
=16
{8cc
=17
8a
8cc
8cc
8cc
8cc
8cc
=18
4cc
8f
4dd}
=19
{8dd
=20
8cc
8dd
8cc
8cc
8b-
8g
=21
2a}
8r
=22
{8cc
=23
8a
8cc
8cc
8cc
8cc
8cc
=24
4cc
8f
4dd}
=25
{8dd
=26
8cc
8dd
8cc
8cc
8b-
8g
=27
2f}
8r
==
*-
!!!minrhy: 16
!!!meters: 6/8 ]  ZZ[8
!!!cut: Lachen und Weinen (30), S. 114
!!!reg: Luxemburg
!!!trd: Singendes Volk, Esch-Alzette 1937 posth.
!!!rhy1: X_  X_X_X_X_X_X_  X_X_X_X_X_X_  X__.X__X_  X__0_.   (x2)
!!!rhy2: X_  X_X_X_X_X_X_  X_X_X_X_X_X_  X__.X__X_  X__0_.
!!!key: T0155  16  F 6/8 ]  ZZ[8
!!!mod: SECHSTONSKALA DUR ?]  AMBITUS[9
!!!kad: 33336361
!!!akz: 1153253_4263253_4263_5363_3556_5533_3556_5511_
!!!fot: 'a__b__bv_c__d__e__d__f__
!!!for: 'a__a__aw_b__c__aw_c__aw_
!!!fok: 'Ma_$a_Ma_Sd_Va_\__Va_\__
!! PHRAS[AUFTAKTIG]
!!!fkt: Liebeslieder
!!!bem: Heffingen, fff Ewen, 10.3.1933
!! THILL, Mathias:
!! PR[38] 2K[0] 2G[6] 3K[12] 3G[0] 4A[4] 4Ü[0] 5A[0] 6K[0] 6G[0]
!! 7K[0] 7G[0] 8A[0] MEHR[0] SI[22] ABS[69] SR[6] SP[16]
!! ST[16] 2k[12] 2g[23] 3k[6] 3g[0] 4d[0] 4ü[0] 5d[0] 6k[0] 6g[0]
!! 7k[0] 7g[0] 8d[0] mehr[0] si[41] dm[-19] sr[35] sp[6]
!! 1F[5] 2F[73] 3F[16] 4F[5] LF[0] 2P[0] 3P[0] 4P[0] TRI[0] DF[4] AB[74]
!! TF[0] U3K[0] U3[0] U4[0] U4Ü[0] U5[0] U6K[0] U6[0] U7K[0] U7[0]
!! N1[17] N2K[11] N2[0] N3K[34] N3[0] N4[37] N4Ü[0] N5[0] N6K[0] N6[0]
!!!n7k: 0] N7[0] O1[0] O2K[0] O2[0] O3K[0] O3[0] HÖ[0
